icons/core/pin-fill.svg

<svg width="32" height="32" viewBox="0 0 32 32" xmlns="http://www.w3.org/2000/svg"><path d="M16.9998 10.6667L10.6665 3.66666L3.6665 10.3333L10.6665 17L13.5 26L25.9998 13L16.9998 10.6667Z"/><path fill-rule="evenodd" clip-rule="evenodd" d="M11.7475 3.66659L13.3738 2.04037L11.9596 0.62616L0.626221 11.9595L2.04043 13.3737L3.66665 11.7475L9.77632 17.8572L12.2551 26.5328C12.5169 27.4492 13.6669 27.7472 14.3409 27.0733L20 21.4142L27.9596 29.3737L29.3738 27.9595L21.4142 19.9999L27.0733 14.3408C27.7473 13.6669 27.4493 12.5169 26.5329 12.255L17.8572 9.77626L11.7475 3.66659ZM10.3333 5.08081L5.08087 10.3333L11.1905 16.4429C11.4309 16.6833 11.606 16.9809 11.6994 17.3077L13.828 24.7578L24.7578 13.8279L17.3078 11.6993C16.981 11.6059 16.6833 11.4308 16.443 11.1905L10.3333 5.08081Z"/></svg>

<svg viewBox="0 0 32 32" xmlns="http://www.w3.org/2000/svg"><path d="M17 10.667l-6.334-7-7 6.666 7 6.667 2.834 9L26 13l-9-2.333z"/><path fill-rule="evenodd" d="M11.748 3.667l1.626-1.627L11.96.626.626 11.96l1.414 1.415 1.627-1.627 6.11 6.11 2.478 8.676a1.25 1.25 0 002.086.54L20 21.414l7.96 7.96 1.414-1.415-7.96-7.96 5.66-5.658a1.25 1.25 0 00-.541-2.086l-8.676-2.479-6.11-6.11zM10.332 5.08l-5.252 5.252 6.11 6.11a2 2 0 01.508.865l2.129 7.45 10.93-10.93-7.45-2.129a2 2 0 01-.865-.508l-6.11-6.11z"/></svg>
